brandFactory_export/1.Light/Jeringuilla _1Light.svg

<?xml version="1.0" encoding="UTF-8"?>
<svg width="24px" height="24px" viewBox="0 0 24 24" version="1.1" xmlns="http://www.w3.org/2000/svg" xmlns:xlink="http://www.w3.org/1999/xlink">
    <title>1.Light/Jeringuilla _1Light</title>
    <g id="Symbols" stroke="none" stroke-width="1" fill="none" fill-rule="evenodd">
        <g id="1.Light/Jeringuilla-_1Light" fill="#5CB615" fill-rule="nonzero">
            <path d="M18.9445378,6.50420168 L17.1529412,4.70252101 L20.2319328,1.59327731 L22.0235294,3.40504202 L18.9445378,6.50420168 L18.9445378,6.50420168 Z M9.61008403,18.4369748 L5.40504202,14.2016807 L6.10756303,13.492437 L8.5210084,15.9327731 C8.62184874,16.0336134 8.75294118,16.0840336 8.88403361,16.0840336 C9.01512605,16.0840336 9.13613445,16.0336134 9.23697479,15.9327731 C9.43865546,15.7310924 9.43865546,15.4151261 9.23697479,15.2134454 L6.81008403,12.7831933 L8.58151261,11.0016807 L10.2420168,12.6420168 C10.3428571,12.7428571 10.4638655,12.7932773 10.594958,12.7932773 C10.7260504,12.7932773 10.8571429,12.7428571 10.9579832,12.6420168 C11.1495798,12.4403361 11.1495798,12.1142857 10.9478992,11.9226891 L9.29747899,10.2789916 L11.0689076,8.49747899 C11.0789916,8.50756303 11.0890756,8.52773109 11.0991597,8.53781513 L13.7445378,11.2 C13.8453782,11.3008403 13.9663866,11.3512605 14.097479,11.3512605 C14.2285714,11.3512605 14.3596639,11.3008403 14.4605042,11.2 C14.6521008,11.0084034 14.6521008,10.6823529 14.4605042,10.4806723 L11.805042,7.81512605 C11.794958,7.80504202 11.7848739,7.79495798 11.7647059,7.78487395 L13.5462185,6.00336134 L15.1058824,7.55294118 C15.2067227,7.64369748 15.3277311,7.69411765 15.4588235,7.69411765 C15.589916,7.69411765 15.7210084,7.64369748 15.8218487,7.54285714 C16.0134454,7.3512605 16.0134454,7.02521008 15.8117647,6.83361345 L14.2521008,5.29411765 L15.287395,4.25210084 L19.492437,8.48739496 L9.61008403,18.4369748 Z M6.08739496,18.6285714 L5.03193277,17.5764706 L6.17815126,16.410084 L7.23361345,17.4722689 L6.08739496,18.6285714 Z M23.4789916,3.42521008 L20.2184874,0.144537815 C20.0168067,-0.0470588235 19.6941176,-0.0470588235 19.5058824,0.144537815 C19.3042017,0.346218487 19.3042017,0.672268908 19.5058824,0.863865546 L19.5159664,0.884033613 L16.4369748,3.98319328 L14.907563,2.44369748 C14.7159664,2.25210084 14.3932773,2.25210084 14.205042,2.44369748 C14.0033613,2.64537815 14.0033613,2.97142857 14.205042,3.16302521 L14.5781513,3.5394958 L4.33613445,13.8386555 C4.14453782,14.0403361 4.14453782,14.3663866 4.33613445,14.5579832 L5.47226891,15.7042017 L3.96638655,17.210084 C3.87563025,17.3109244 3.81512605,17.4319328 3.81512605,17.5764706 C3.81512605,17.707563 3.87563025,17.8386555 3.96638655,17.9294118 L4.45042017,18.4168067 L0.144537815,22.7630252 C-0.0470588235,22.9546218 -0.0470588235,23.2806723 0.144537815,23.4722689 C0.245378151,23.5731092 0.376470588,23.6235294 0.494117647,23.6235294 C0.625210084,23.6235294 0.756302521,23.5731092 0.857142857,23.4722689 L5.16302521,19.1361345 L5.72773109,19.7042017 C5.82857143,19.805042 5.94957983,19.8554622 6.0907563,19.8554622 C6.22184874,19.8554622 6.35294118,19.805042 6.44369748,19.7042017 L7.95294118,18.194958 L9.2605042,19.512605 C9.36134454,19.6134454 9.48235294,19.6638655 9.61344538,19.6638655 C9.74453782,19.6638655 9.87563025,19.6134454 9.97647059,19.512605 L20.205042,9.2 L20.6084034,9.60672269 C20.6991597,9.70756303 20.8302521,9.75798319 20.9613445,9.75798319 C21.092437,9.75798319 21.2134454,9.70756303 21.3142857,9.60672269 C21.5159664,9.40504202 21.5159664,9.08907563 21.3142857,8.88739496 L19.6638655,7.22689076 L22.7428571,4.11764706 L22.7731092,4.14789916 C22.8739496,4.2487395 22.994958,4.29915966 23.1260504,4.29915966 C23.2571429,4.29915966 23.3882353,4.2487395 23.4890756,4.14789916 C23.6705882,3.95294118 23.6705882,3.6302521 23.4789916,3.42521008 Z" id="Jeringuilla-_1Light"></path>
        </g>
    </g>
</svg>

<svg width="24" height="24" viewBox="0 0 24 24" xmlns="http://www.w3.org/2000/svg"><path d="M18.945 6.504l-1.792-1.801 3.079-3.11 1.792 1.812-3.08 3.1zM9.61 18.437l-4.205-4.235.703-.71 2.413 2.44c.1.102.232.152.363.152a.49.49 0 00.353-.151.503.503 0 000-.72l-2.427-2.43 1.772-1.781 1.66 1.64c.1.1.222.151.353.151.131 0 .262-.05.363-.151a.512.512 0 00-.01-.72l-1.65-1.643 1.77-1.782c.011.01.021.03.031.04l2.646 2.663c.1.1.221.151.352.151.132 0 .263-.05.364-.151a.522.522 0 000-.72l-2.656-2.665a.14.14 0 00-.04-.03l1.781-1.782 1.56 1.55a.512.512 0 00.716-.01.5.5 0 00-.01-.71l-1.56-1.539 1.035-1.042 4.205 4.235-9.882 9.95zm-3.523.192l-1.055-1.053 1.146-1.166 1.056 1.062-1.147 1.157zM23.48 3.425l-3.26-3.28a.514.514 0 00-.713 0 .503.503 0 000 .719l.01.02-3.079 3.1-1.53-1.54a.503.503 0 00-.703.72l.374.375-10.242 10.3a.522.522 0 000 .719l1.136 1.146-1.506 1.506a.54.54 0 00-.15.366c0 .132.06.263.15.353l.484.488-4.305 4.346a.505.505 0 00.35.86c.13 0 .261-.05.362-.15l4.306-4.337.565.568c.1.101.222.151.363.151.13 0 .262-.05.353-.15l1.509-1.51 1.308 1.318c.1.1.221.15.352.15.132 0 .263-.05.363-.15L20.205 9.2l.403.407a.49.49 0 00.706 0 .503.503 0 000-.72l-1.65-1.66 3.079-3.11.03.03c.1.102.222.152.353.152.131 0 .262-.05.363-.151a.537.537 0 00-.01-.723z" fill="#5CB615" fill-rule="nonzero"/></svg>
